;FLAVOR:Marlin
;TIME:6666
;Filament used: 0m
;Layer height: 0.2

;Generated with Cura_SteamEngine 2.7.0

;Start GCode begin
M140 S50
M109 S200
M190 S50
G28 ;Home
G90 ;absolute positioning
G1 X-4 Y-4
G1 Z0 F3000
G92 E0
G1 F200 E20
G92 E0
;Start GCode end

;LAYER_COUNT:176
;LAYER:-5
G1 F1500 E-4.5
M107
G0 F2400 X30.696 Y46.856 Z0.3
G1 F1500 E0
G1 F900 X31.21 Y46.578 E0.05831
G1 X31.749 Y46.371 E0.11592
G1 X32.315 Y46.23 E0.17412
G1 X33.151 Y46.155 E0.25787
G1 X91.856 Y46.155 E6.11548
G1 X92.443 Y46.192 E6.17417
G1 X93.018 Y46.302 E6.23258
G1 X93.572 Y46.484 E6.29077
G1 X94.089 Y46.729 E6.34785
G1 X94.578 Y47.041 E6.40573
G1 X95.03 Y47.42 E6.46459
G1 X95.429 Y47.849 E6.52305
G1 X95.763 Y48.315 E6.58025
G1 X96.041 Y48.829 E6.63856
G1 X96.248 Y49.368 E6.69617
G1 X96.389 Y49.934 E6.75438
G1 X96.464 Y50.77 E6.83813
G1 X96.464 Y74.237 E9.17967
G1 X96.427 Y74.824 E9.23836
G1 X96.317 Y75.399 E9.29678
G1 X96.135 Y75.953 E9.35496
G1 X95.89 Y76.47 E9.41205
G1 X95.578 Y76.959 E9.46992
G1 X95.199 Y77.411 E9.52878
G1 X94.77 Y77.81 E9.58724
G1 X94.304 Y78.144 E9.64445
G1 X93.79 Y78.422 E9.70276
G1 X93.251 Y78.629 E9.76037
G1 X92.685 Y78.77 E9.81857
G1 X91.849 Y78.845 E9.90232
G1 X33.144 Y78.845 E15.75993
G1 X32.557 Y78.808 E15.81862
G1 X31.982 Y78.698 E15.87703
G1 X31.428 Y78.516 E15.93521
G1 X30.911 Y78.271 E15.9923
G1 X30.422 Y77.959 E16.05018
G1 X29.97 Y77.58 E16.10904
G1 X29.571 Y77.151 E16.16749
G1 X29.237 Y76.685 E16.2247
G1 X28.959 Y76.171 E16.28301
G1 X28.75 Y75.627 E16.34116
G1 X28.611 Y75.066 E16.39883
G1 X28.536 Y74.23 E16.48258
G1 X28.536 Y50.756 E18.82482
G1 X28.573 Y50.176 E18.88282
G1 X28.683 Y49.601 E18.94123
G1 X28.865 Y49.047 E18.99941
G1 X29.11 Y48.53 E19.0565
G1 X29.422 Y48.041 E19.11438
G1 X29.801 Y47.589 E19.17324
G1 X30.23 Y47.19 E19.23169
G1 X30.696 Y46.856 E19.2889
G0 F2400 X30.4 Y47.068
G1 F900 X30.4 Y77.94 E22.36932
G0 F2400 X32 Y78.701
G1 F900 X32 Y46.308 E25.60151
G0 F2400 X33.6 Y46.155
G1 F900 X33.6 Y78.845 E28.86333
G0 F2400 X35.2 Y78.845
G1 F900 X35.2 Y46.155 E32.12515
G0 F2400 X36.8 Y46.155
G1 F900 X36.8 Y78.845 E35.38697
G0 F2400 X38.4 Y78.845
G1 F900 X38.4 Y46.155 E38.64879
G0 F2400 X40 Y46.155
G1 F900 X40 Y78.845 E41.91062
G0 F2400 X41.6 Y78.845
G1 F900 X41.6 Y46.155 E45.17244
G0 F2400 X43.2 Y46.155
G1 F900 X43.2 Y78.845 E48.43426
G0 F2400 X44.8 Y78.845
G1 F900 X44.8 Y46.155 E51.69608
G0 F2400 X46.4 Y46.155
G1 F900 X46.4 Y78.845 E54.9579
G0 F2400 X48 Y78.845
G1 F900 X48 Y46.155 E58.21972
G0 F2400 X49.6 Y46.155
G1 F900 X49.6 Y78.845 E61.48154
G0 F2400 X51.2 Y78.845
G1 F900 X51.2 Y46.155 E64.74337
G0 F2400 X52.8 Y46.155
G1 F900 X52.8 Y78.845 E68.00519
G0 F2400 X54.4 Y78.845
G1 F900 X54.4 Y46.155 E71.26701
G0 F2400 X56 Y46.155
G1 F900 X56 Y78.845 E74.52883
G0 F2400 X57.6 Y78.845
G1 F900 X57.6 Y46.155 E77.79065
G0 F2400 X59.2 Y46.155
G1 F900 X59.2 Y78.845 E81.05247
G0 F2400 X60.8 Y78.845
G1 F900 X60.8 Y46.155 E84.31429
G0 F2400 X62.4 Y46.155
G1 F900 X62.4 Y78.845 E87.57612
G0 F2400 X64 Y78.845
G1 F900 X64 Y46.155 E90.83794
G0 F2400 X65.6 Y46.155
G1 F900 X65.6 Y78.845 E94.09976
G0 F2400 X67.2 Y78.845
G1 F900 X67.2 Y46.155 E97.36158
G0 F2400 X68.8 Y46.155
G1 F900 X68.8 Y78.845 E100.6234
G0 F2400 X70.4 Y78.845
G1 F900 X70.4 Y46.155 E103.88522
G0 F2400 X72 Y46.155
G1 F900 X72 Y78.845 E107.14704
G0 F2400 X73.6 Y78.845
G1 F900 X73.6 Y46.155 E110.40887
G0 F2400 X75.2 Y46.155
G1 F900 X75.2 Y78.845 E113.67069
G0 F2400 X76.8 Y78.845
G1 F900 X76.8 Y46.155 E116.93251
G0 F2400 X78.4 Y46.155
G1 F900 X78.4 Y78.845 E120.19433
G0 F2400 X80 Y78.845
G1 F900 X80 Y46.155 E123.45615
G0 F2400 X81.6 Y46.155
G1 F900 X81.6 Y78.845 E126.71797
G0 F2400 X83.2 Y78.845
G1 F900 X83.2 Y46.155 E129.97979
G0 F2400 X84.8 Y46.155
G1 F900 X84.8 Y78.845 E133.24162
G0 F2400 X86.4 Y78.845
G1 F900 X86.4 Y46.155 E136.50344
G0 F2400 X88 Y46.155
G1 F900 X88 Y78.845 E139.76526
G0 F2400 X89.6 Y78.845
G1 F900 X89.6 Y46.155 E143.02708
G0 F2400 X91.2 Y46.155
G1 F900 X91.2 Y78.845 E146.2889
G0 F2400 X92.8 Y78.742
G1 F900 X92.8 Y46.261 E149.52987
G0 F2400 X94.4 Y46.928
G1 F900 X94.4 Y78.076 E152.63783
G0 F2400 X96 Y76.238
G1 F900 X96 Y48.754 E155.38019
G0 F2400 X28.8 Y49.244
M104 S198
G1 F900 X28.8 Y75.757 E158.02567
G0 F2400 X30.435 Y46.981
;TIME_ELAPSED:118.848687
;LAYER:-4
M140 S50
G1 F1500 E153.52567
G0 F2400 X30.435 Y46.981 Z0.45
;TYPE:SUPPORT
G1 F1500 E158.02567
G1 F900 X30.189 Y47.156 E158.03885
G1 X29.767 Y47.55 E158.06405
G1 X29.75 Y47.569 E158.06517
G1 X61.074 Y78.894 E159.99902
G1 X59.802 Y78.894 E160.05454
G1 X29.201 Y48.293 E161.94373
G1 X29.067 Y48.503 E161.9546
G1 X28.818 Y49.027 E161.97993
G1 X28.779 Y49.144 E161.98531
G1 X58.529 Y78.894 E163.82196
G1 X57.256 Y78.894 E163.87753
G1 X28.523 Y50.161 E165.65139
G1 X28.522 Y50.171 E165.65183
G1 X28.486 Y50.753 E165.67728
G1 X28.485 Y51.396 E165.70535
G1 X55.983 Y78.894 E167.40297
G1 X54.71 Y78.894 E167.45854
G1 X28.485 Y52.668 E169.07759
G1 X28.485 Y53.941 E169.13317
G1 X53.438 Y78.894 E170.67366
G1 X52.165 Y78.894 E170.72923
G1 X28.485 Y55.214 E172.19114
G1 X28.485 Y56.487 E172.24671
G1 X50.892 Y78.894 E173.63003
G1 X49.619 Y78.894 E173.6856
G1 X28.485 Y57.76 E174.99033
G1 X28.485 Y59.032 E175.04586
G1 X48.347 Y78.894 E176.27206
G1 X47.074 Y78.894 E176.32763
G1 X28.485 Y60.305 E177.47524
G1 X28.485 Y61.578 E177.53081
G1 X45.801 Y78.894 E178.59983
G1 X44.528 Y78.894 E178.6554
G1 X28.485 Y62.851 E179.64583
G1 X28.485 Y64.123 E179.70136
G1 X43.255 Y78.894 E180.61323
G1 X41.983 Y78.894 E180.66876
G1 X28.485 Y65.396 E181.50207
G1 X28.485 Y66.669 E181.55764
G1 X40.71 Y78.894 E182.31237
G1 X39.437 Y78.894 E182.36794
G1 X28.485 Y67.942 E183.04407
G1 X28.485 Y69.215 E183.09964
G1 X38.164 Y78.894 E183.69719
G1 X36.891 Y78.894 E183.75276
G1 X28.485 Y70.487 E184.27174
G1 X28.485 Y71.76 E184.32731
G1 X35.619 Y78.894 E184.76774
G1 X34.346 Y78.894 E184.82331
G1 X28.485 Y73.033 E185.18514
G1 X28.485 Y74.222 E185.23705
G1 X28.493 Y74.314 E185.24108
G1 X33.068 Y78.889 E185.52352
G1 X32.553 Y78.857 E185.54604
G1 X31.971 Y78.744 E185.57193
G1 X31.495 Y78.588 E185.59379
G1 X28.799 Y75.892 E185.76023
G0 F2400 X30.435 Y46.981
G1 F900 X62.347 Y78.894 E187.73038
G1 X63.62 Y78.894 E187.78595
G1 X31.24 Y46.514 E189.78496
G1 X31.734 Y46.322 E189.8081
G1 X32.205 Y46.205 E189.82929
G1 X64.893 Y78.894 E191.84734
G1 X66.166 Y78.894 E191.90291
G1 X33.376 Y46.104 E193.92724
G1 X34.649 Y46.104 E193.98281
G1 X67.438 Y78.894 E196.0071
G1 X68.711 Y78.894 E196.06267
G1 X35.922 Y46.104 E198.08696
G1 X37.195 Y46.104 E198.14254
G1 X69.984 Y78.894 E200.16683
G1 X71.257 Y78.894 E200.2224
G1 X38.468 Y46.104 E202.24669
G1 X39.74 Y46.104 E202.30222
G1 X72.53 Y78.894 E204.32654
G1 X73.802 Y78.894 E204.38207
G1 X41.013 Y46.104 E206.40636
G1 X42.286 Y46.104 E206.46193
G1 X75.075 Y78.894 E208.48622
G1 X76.348 Y78.894 E208.5418
G1 X43.559 Y46.104 E210.56609
G1 X44.831 Y46.104 E210.62161
G1 X77.621 Y78.894 E212.64594
G1 X78.894 Y78.894 E212.70151
G1 X46.104 Y46.104 E214.72583
G1 X47.377 Y46.104 E214.7814
G1 X80.166 Y78.894 E216.80569
G1 X81.439 Y78.894 E216.86127
G1 X48.65 Y46.104 E218.88556
G1 X49.923 Y46.104 E218.94113
G1 X82.712 Y78.894 E220.96542
G1 X83.985 Y78.894 E221.02099
G1 X51.195 Y46.104 E223.04532
G1 X52.468 Y46.104 E223.10089
G1 X85.257 Y78.894 E225.12518
G1 X86.53 Y78.894 E225.18075
G1 X53.741 Y46.104 E227.20504
G1 X55.014 Y46.104 E227.26061
G1 X87.803 Y78.894 E229.28491
G1 X89.076 Y78.894 E229.34048
G1 X56.287 Y46.104 E231.36477
G1 X57.559 Y46.104 E231.4203
G1 X90.349 Y78.894 E233.44462
G1 X91.621 Y78.894 E233.50015
G1 X58.832 Y46.104 E235.52444
G1 X60.105 Y46.104 E235.58001
G1 X92.794 Y78.793 E237.5981
G1 X93.264 Y78.676 E237.61924
G1 X93.758 Y78.485 E237.64236
G1 X61.378 Y46.104 E239.6414
G1 X62.651 Y46.105 E239.69697
G1 X94.564 Y78.017 E241.66712
G1 X94.81 Y77.842 E241.6803
G1 X95.232 Y77.448 E241.70551
G1 X95.248 Y77.429 E241.70659
G1 X63.924 Y46.105 E243.64041
G1 X65.197 Y46.105 E243.69598
G1 X95.798 Y76.706 E245.58516
G1 X95.931 Y76.496 E245.59601
G1 X96.179 Y75.97 E245.6214
G1 X96.218 Y75.854 E245.62674
G1 X66.47 Y46.105 E247.46329
G1 X67.742 Y46.105 E247.51882
G1 X96.474 Y74.837 E249.29262
G1 X96.476 Y74.827 E249.29307
G1 X96.513 Y74.246 E249.31848
G1 X96.513 Y73.602 E249.34659
G1 X69.015 Y46.105 E251.04418
G1 X70.288 Y46.105 E251.09975
G1 X96.513 Y72.329 E252.71874
G1 X96.513 Y71.057 E252.77427
G1 X71.561 Y46.105 E254.31471
G1 X72.834 Y46.105 E254.37028
G1 X96.513 Y69.784 E255.83213
G1 X96.513 Y68.511 E255.8877
G1 X74.106 Y46.105 E257.27098
G1 X75.379 Y46.105 E257.32656
G1 X96.513 Y67.238 E258.63125
G1 X96.513 Y65.965 E258.68682
G1 X76.652 Y46.105 E259.91293
G1 X77.925 Y46.105 E259.9685
G1 X96.513 Y64.693 E261.11605
G1 X96.513 Y63.42 E261.17162
G1 X79.198 Y46.105 E262.24058
G1 X80.47 Y46.105 E262.29611
G1 X96.513 Y62.147 E263.28651
G1 X96.513 Y60.874 E263.34208
G1 X81.743 Y46.105 E264.25389
G1 X83.016 Y46.105 E264.30946
G1 X96.513 Y59.602 E265.14271
G1 X96.513 Y58.329 E265.19828
G1 X84.289 Y46.105 E265.95294
G1 X85.562 Y46.105 E266.00852
G1 X96.513 Y57.056 E266.68459
G1 X96.513 Y55.783 E266.74016
G1 X86.834 Y46.105 E267.33767
G1 X88.107 Y46.105 E267.39324
G1 X96.513 Y54.51 E267.91216
G1 X96.513 Y53.238 E267.96769
G1 X89.38 Y46.105 E268.40805
G1 X90.653 Y46.105 E268.46362
G1 X96.513 Y51.965 E268.8254
G1 X96.513 Y50.775 E268.87735
G1 X96.505 Y50.684 E268.88133
G1 X91.93 Y46.11 E269.16374
G1 X92.446 Y46.142 E269.18631
G1 X93.027 Y46.253 E269.21213
G1 X93.503 Y46.41 E269.23402
G1 X96.2 Y49.107 E269.40052
G0 F2400 X30.431 Y46.8
;TIME_ELAPSED:291.809057
;LAYER:-3
G1 F1500 E264.90052
G0 F2400 X30.431 Y46.8 Z0.55
G1 F1500 E269.40052
G1 F1200 X30.096 Y47.04 E269.40737
G1 X29.924 Y47.2 E269.41128
G1 X95.081 Y47.2 E270.49484
G1 X95.169 Y47.274 E270.49675
G1 X95.473 Y47.6 E270.50417
G1 X29.53 Y47.6 E271.6008
G1 X29.268 Y47.912 E271.60758
G1 X29.212 Y48 E271.60931
G1 X95.784 Y48 E272.71641
G1 X95.933 Y48.209 E272.72068
G1 X96.037 Y48.4 E272.7243
G1 X28.956 Y48.4 E273.83986
G1 X28.935 Y48.432 E273.84049
G1 X28.761 Y48.8 E273.84726
G1 X96.245 Y48.8 E274.96953
G1 X96.398 Y49.2 E274.97665
G1 X28.604 Y49.2 E276.10407
G1 X28.487 Y49.553 E276.11025
G1 X28.479 Y49.6 E276.11104
G1 X96.512 Y49.6 E277.24244
G1 X96.586 Y49.899 E277.24756
G1 X96.596 Y50 E277.24925
G1 X28.403 Y50 E278.3833
G1 X28.375 Y50.142 E278.38571
G1 X28.359 Y50.4 E278.39001
G1 X96.632 Y50.4 E279.52539
G1 X96.664 Y50.762 E279.53144
G1 X96.664 Y50.8 E279.53207
G1 X28.335 Y50.8 E280.66838
G1 X28.335 Y51.2 E280.67504
G1 X96.664 Y51.2 E281.81135
G1 X96.664 Y51.6 E281.818
G1 X28.335 Y51.6 E282.95432
G1 X28.335 Y52 E282.96097
G1 X96.664 Y52 E284.09729
G1 X96.664 Y52.4 E284.10394
G1 X28.335 Y52.4 E285.24026
G1 X28.335 Y52.8 E285.24691
G1 X96.664 Y52.8 E286.38322
G1 X96.664 Y53.2 E286.38988
G1 X28.335 Y53.2 E287.52619
G1 X28.335 Y53.6 E287.53284
G1 X96.664 Y53.6 E288.66916
G1 X96.664 Y54 E288.67581
G1 X28.335 Y54 E289.81213
G1 X28.335 Y54.4 E289.81878
G1 X96.664 Y54.4 E290.9551
G1 X96.664 Y54.8 E290.96175
G1 X28.335 Y54.8 E292.09806
G1 X28.335 Y55.2 E292.10472
G1 X96.664 Y55.2 E293.24103
G1 X96.664 Y55.6 E293.24768
G1 X28.335 Y55.6 E294.384
G1 X28.335 Y56 E294.39065
G1 X96.664 Y56 E295.52697
G1 X96.664 Y56.4 E295.53362
G1 X28.335 Y56.4 E296.66994
G1 X28.335 Y56.8 E296.67659
G1 X96.664 Y56.8 E297.8129
G1 X96.664 Y57.2 E297.81956
G1 X28.335 Y57.2 E298.95587
G1 X28.335 Y57.6 E298.96252
G1 X96.664 Y57.6 E300.09884
G1 X96.664 Y58 E300.10549
G1 X28.335 Y58 E301.24181
G1 X28.335 Y58.4 E301.24846
G1 X96.664 Y58.4 E302.38477
G1 X96.664 Y58.8 E302.39143
G1 X28.335 Y58.8 E303.52774
G1 X28.335 Y59.2 E303.53439
G1 X96.664 Y59.2 E304.67071
G1 X96.664 Y59.6 E304.67736
G1 X28.335 Y59.6 E305.81368
G1 X28.335 Y60 E305.82033
G1 X96.664 Y60 E306.95665
G1 X96.664 Y60.4 E306.9633
G1 X28.335 Y60.4 E308.09961
G1 X28.335 Y60.8 E308.10627
G1 X96.664 Y60.8 E309.24258
G1 X96.664 Y61.2 E309.24923
G1 X28.335 Y61.2 E310.38555
G1 X28.335 Y61.6 E310.3922
G1 X96.664 Y61.6 E311.52852
G1 X96.664 Y62 E311.53517
G1 X28.335 Y62 E312.67149
G1 X28.335 Y62.4 E312.67814
G1 X96.664 Y62.4 E313.81445
G1 X96.664 Y62.8 E313.82111
G1 X28.335 Y62.8 E314.95742
G1 X28.335 Y63.2 E314.96407
G1 X96.664 Y63.2 E316.10039
G1 X96.664 Y63.6 E316.10704
G1 X28.335 Y63.6 E317.24336
G1 X28.335 Y64 E317.25001
G1 X96.664 Y64 E318.38633
G1 X96.664 Y64.4 E318.39298
G1 X28.335 Y64.4 E319.52929
G1 X28.335 Y64.8 E319.53595
G1 X96.664 Y64.8 E320.67226
G1 X96.664 Y65.2 E320.67891
G1 X28.335 Y65.2 E321.81523
G1 X28.335 Y65.6 E321.82188
G1 X96.664 Y65.6 E322.9582
G1 X96.664 Y66 E322.96485
G1 X28.335 Y66 E324.10117
G1 X28.335 Y66.4 E324.10782
G1 X96.664 Y66.4 E325.24413
G1 X96.664 Y66.8 E325.25078
G1 X28.335 Y66.8 E326.3871
G1 X28.335 Y67.2 E326.39375
G1 X96.664 Y67.2 E327.53007
G1 X96.664 Y67.6 E327.53672
G1 X28.335 Y67.6 E328.67304
G1 X28.335 Y68 E328.67969
G1 X96.664 Y68 E329.816
G1 X96.664 Y68.4 E329.82266
G1 X28.335 Y68.4 E330.95897
G1 X28.335 Y68.8 E330.96562
G1 X96.664 Y68.8 E332.10194
G1 X96.664 Y69.2 E332.10859
G1 X28.335 Y69.2 E333.24491
G1 X28.335 Y69.6 E333.25156
G1 X96.664 Y69.6 E334.38788
G1 X96.664 Y70 E334.39453
G1 X28.335 Y70 E335.53084
G1 X28.335 Y70.4 E335.5375
G1 X96.664 Y70.4 E336.67381
G1 X96.664 Y70.8 E336.68046
G1 X28.335 Y70.8 E337.81678
G1 X28.335 Y71.2 E337.82343
G1 X96.664 Y71.2 E338.95975
G1 X96.664 Y71.6 E338.9664
G1 X28.335 Y71.6 E340.10272
G1 X28.335 Y72 E340.10937
G1 X96.664 Y72 E341.24568
G1 X96.664 Y72.4 E341.25234
G1 X28.335 Y72.4 E342.38865
G1 X28.335 Y72.8 E342.3953
G1 X96.664 Y72.8 E343.53162
G1 X96.664 Y73.2 E343.53827
G1 X28.335 Y73.2 E344.67459
G1 X28.335 Y73.6 E344.68124
G1 X96.664 Y73.6 E345.81756
G1 X96.664 Y74 E345.82421
G1 X28.335 Y74 E346.96052
G1 X28.335 Y74.233 E346.9644
G1 X28.35 Y74.4 E346.96719
G1 X96.653 Y74.4 E348.10307
G1 X96.627 Y74.8 E348.10974
G1 X28.386 Y74.8 E349.24459
G1 X28.413 Y75.1 E349.2496
G1 X28.437 Y75.2 E349.25131
G1 X96.558 Y75.2 E350.38416
G1 X96.512 Y75.447 E350.38834
G1 X96.461 Y75.6 E350.39103
G1 X28.536 Y75.6 E351.52062
G1 X28.557 Y75.684 E351.52206
G1 X28.678 Y76 E351.52769
G1 X96.33 Y76 E352.65275
G1 X96.324 Y76.019 E352.65308
G1 X96.143 Y76.4 E352.66009
G1 X28.854 Y76.4 E353.77911
G1 X29.066 Y76.79 E353.7865
G1 X29.073 Y76.8 E353.7867
G1 X95.915 Y76.8 E354.89829
G1 X95.731 Y77.088 E354.90397
G1 X95.637 Y77.2 E354.9064
G1 X29.359 Y77.2 E356.00861
G1 X29.42 Y77.284 E356.01033
G1 X29.713 Y77.6 E356.0175
G1 X95.29 Y77.6 E357.10805
G1 X94.903 Y77.96 E357.11684
G1 X94.847 Y78 E357.11799
G1 X30.158 Y78 E358.19377
G1 X30.292 Y78.112 E358.19667
G1 X30.741 Y78.4 E358.20554
G1 X94.25 Y78.4 E359.2617
G1 X93.878 Y78.602 E359.26874
G1 X93.362 Y78.8 E359.27793
G1 X31.65 Y78.8 E360.30421
G0 F2400 X30.431 Y46.8
G1 F1200 X94.572 Y46.8 E361.37088
G1 X94.187 Y46.554 E361.37847
G1 X93.862 Y46.4 E361.38446
G1 X31.118 Y46.4 E362.42789
G0 F2400 X31.121 Y46.398
G1 F1200 X31.691 Y46.179 E362.43805
G1 X32.28 Y46.033 E362.44814
G1 X32.646 Y46 E362.45425
G1 X92.509 Y46 E363.44978
G0 F2400 X31.121 Y46.398
G1 F1200 X31.118 Y46.4 E363.44984
G0 F2400 X30.59 Y46.685
;TIME_ELAPSED:577.633010
;LAYER:-2
G1 F1500 E358.94984
G0 F2400 X30.59 Y46.685 Z0.65
G1 F1500 E363.44984
G1 F1200 X30.399 Y46.821 E363.45373
G1 X30.399 Y78.18 E363.97524
G1 X30.292 Y78.112 E363.97735
G1 X29.999 Y77.866 E363.98371
G1 X29.999 Y47.129 E364.49487
G1 X29.655 Y47.45 E364.50269
G1 X29.599 Y47.516 E364.50413
G1 X29.599 Y77.476 E365.00237
G1 X29.42 Y77.284 E365.00673
G1 X29.199 Y76.975 E365.01305
G1 X29.199 Y48.019 E365.49459
G1 X28.935 Y48.432 E365.50274
G1 X28.799 Y48.719 E365.50802
G1 X28.799 Y76.297 E365.96665
G1 X28.778 Y76.259 E365.96737
G1 X28.557 Y75.684 E365.97761
G1 X28.413 Y75.1 E365.98762
G1 X28.399 Y74.944 E365.99022
G1 X28.399 Y50.015 E366.40479
G0 F2400 X30.59 Y46.685
G1 F1200 X30.799 Y46.571 E366.40875
G1 X30.799 Y78.436 E366.93867
G1 X30.812 Y78.445 E366.93893
G1 X31.199 Y78.628 E366.94605
G1 X31.199 Y46.367 E367.48255
G1 X31.599 Y46.213 E367.48968
G1 X31.599 Y78.783 E368.03132
G1 X31.933 Y78.893 E368.03717
G1 X31.999 Y78.905 E368.03829
G1 X31.999 Y46.101 E368.58382
G1 X32.28 Y46.032 E368.58863
G1 X32.399 Y46.021 E368.59062
G1 X32.399 Y78.981 E369.13875
G1 X32.522 Y79.005 E369.14083
